X:1
T:Title
%%score { ( 1 3 ) | ( 2 4 ) }
L:1/8
M:4/4
K:A
V:1 treble nm="Grand Piano"
V:3 treble 
V:2 bass 
V:4 bass 
V:1
 z4 z2[Q:1/4=106] [CE]2 | [CE]2 [Ec]2 [Ec]3 [EA] | [EB]2 [DB]2 [CA]3 [CE] | [DF]2 [FA]2 G2 F2 | %4
 E6 [CE]2 | E2 c2 B3 E | [CE]2 [CB]2 [CA]3 [CEA] | [B,EG]2 [B,EG]2 [B,^DG]2 [A,DF]2 | %8
[M:3/4] [G,E]6 |[M:1/4] E2 |[M:4/4] [Ec]4 [EA]4 | F2 z2 z4 | [EA]2 [EA]2 B2 c2 | B6 E2 | c4 z4 | %15
 [Fe]2 [Fd]2 [EFc]2 [DFB]2 | AAEc c2 B2 |[M:3/4] [CA]6 |] %18
V:2
 z4 z2 [A,,A,]2 | [A,,A,]2 [A,,A,]2 [A,,A,]3 [C,A,] | [E,G,]2 [E,G,]2 [A,,A,]3 [A,,A,] | %3
 [D,A,]2 [D,A,]2 [E,A,E]2 [F,A,D]2 | [A,C]6 [A,,A,]2 | [E,G,D]2 [E,G,D]2 [E,G,D]3 [E,B,D] | %6
 [A,,A,]2 [A,,E,]2 [A,,E,]3 A,, | B,,2 B,,2 B,,2 B,,2 |[M:3/4] E,6 |[M:1/4] E,2 | %10
[M:4/4] [A,,A,]2 A,,2 C,2 C,2 | z2 .E2 z4 | [C,A,]2 [C,A,]2 [E,G,E]2 [A,E]2 | [E,G,E]6 [E,D]2 | %14
 [A,CE]2 [A,C]2 [G,DE]2 [A,E=G]2 | [D,D]2 B,,2 C,2 D,2 | %16
 [E,CE][E,CE][E,A,C][E,A,E] [E,A,E]2 [E,G,D]2 |[M:3/4] [A,,A,]6 |] %18
V:3
 x8 | x8 | x8 | x8 | x8 | x8 | x8 | x8 |[M:3/4] x6 |[M:1/4] x2 |[M:4/4] z2 A,2 A,2 A,2 | %11
 BAGF [CE]2 [CE][CE] | x8 | x8 | z2 E2 B2 c2 | x8 | x8 |[M:3/4] x6 |] %18
V:4
 x8 | x8 | x8 | x8 | x8 | x8 | x8 | x8 |[M:3/4] x6 |[M:1/4] x2 |[M:4/4] x8 | %11
 [D,A,]2 [E,A,]-[E,A,D] [A,,A,]2 [A,,A,][A,,A,] | x8 | x8 | x8 | x8 | x8 |[M:3/4] x6 |] %18

